(Safety-enhanced G-code generated by preprocessor)
(Original file: 001_normalized.txt)
(Generated on: 2025-04-28 10:58:12)

(Normalized G-code generated by GCodeNormalizer)
(Original file: 001.txt)
(Generated on: 2025-04-28 10:58:12)

( 001 )
( File created: Saturday, April 26, 2025 - 08:20 PM)
( for Mach2/3 from Vectric )
( Material Size)
( X= 400.000, Y= 600.000 ,Z= 18.000)
()
(Toolpaths used in this file:)
(Drill 1)
(Profile 1)
(Tools used in this file: )
(25 = Puur d=10 mm)
(11 = End Mill {12mm})
N120G00G21G17G90G40G49G80
N130G71G91.1
N140T25M06
N150 (Puur d=10 mm)
N160G00G43Z47.000H25
N170S14000M03
N180(Toolpath:- Drill 1)
N190()
N200G94
N210G00X0.000Y0.000F3600.0
N220G00X95.770Y-59.443Z24.000
N230G00Z18.000
#600 = 1
#601 = 0
#602 = 0
#603 = 1
M150
N240G01Z13.000F1200.0
N250G00Z24.000
N260G00X169.344Y-79.639
N270G00Z18.000
#600 = 1
#601 = 0
#602 = 0
#603 = 1
M150
N280G01Z13.000F1200.0
N290G00Z24.000
N300G00X275.377Y-115.705
N310G00Z18.000
#600 = 1
#601 = 0
#602 = 0
#603 = 1
M150
N320G01Z13.000F1200.0
N330G00Z24.000
N340G00X236.426Y-516.754
N350G00Z18.000
#600 = 1
#601 = 0
#602 = 0
#603 = 1
M150
N360G01Z13.000F1200.0
N370G00Z24.000
N380G00X144.820Y-534.787
N390G00Z18.000
#600 = 1
#601 = 0
#602 = 0
#603 = 1
M150
N400G01Z13.000F1200.0
N410G00Z24.000
N420G00X98.656Y-406.393
N430G00Z18.000
#600 = 1
#601 = 0
#602 = 0
#603 = 1
M150
N440G01Z13.000F1200.0
N450G00Z24.000
N460T11M6
N470 (End Mill {12mm})
N480G43H11
N490S12000M03
(Profile 1)
()
N520G00X200.000Y-133.950Z24.000
N530G00Z18.000
#600 = 1
#601 = 0
#602 = 0
#603 = 1
M150
N540G01Z15.000F900.0
#600 = 2
#601 = 1
#602 = 1
#603 = 0
M150
N550G02X266.050Y-200.000I0.000J-66.050F1800.0
#600 = 2
#601 = 1
#602 = 1
#603 = 0
M150
N560G02X200.000Y-266.050I-66.050J0.000
#600 = 2
#601 = 1
#602 = 1
#603 = 0
M150
N570G02X133.950Y-200.000I0.000J66.050
#600 = 2
#601 = 1
#602 = 1
#603 = 0
M150
N580G02X200.000Y-133.950I66.050J0.000
N590G00Z24.000
N600G00Y-340.343
N610G00Z18.000
#600 = 1
#601 = 0
#602 = 0
#603 = 1
M150
N620G01Z15.000F900.0
#600 = 2
#601 = 1
#602 = 1
#603 = 0
M150
N630G02X266.050Y-406.393I0.000J-66.050F1800.0
#600 = 2
#601 = 1
#602 = 1
#603 = 0
M150
N640G02X200.000Y-472.443I-66.050J0.000
#600 = 2
#601 = 1
#602 = 1
#603 = 0
M150
N650G02X133.950Y-406.393I0.000J66.050
#600 = 2
#601 = 1
#602 = 1
#603 = 0
M150
N660G02X200.000Y-340.343I66.050J0.000
N670G00Z24.000
N680G00Z47.000
N690G00X0.000Y0.000
N700M09
N710M30
%

(End of normalized G-code)
(Processed 73 lines)
(Normalized 16 G-codes)
(Removed 30 redundant coordinates)
(Added 0 explicit G01 commands)

(End of safety-enhanced G-code)
(Added 16 safety checks)