(Safety-enhanced G-code generated by preprocessor)
(Original file: vDrill_normalized.txt)
(Generated on: 2025-04-27 13:53:39)

(Normalized G-code generated by GCodeNormalizer)
(Original file: vDrill.txt)
(Generated on: 2025-04-27 13:53:39)

( vert puur )
( File created: Thursday, September 22, 2022 - 10:43 AM)
( for Mach2/3 from Vectric )
( Material Size)
( X= 20.000, Y= 600.000, Z= 16.000)
()
(Toolpaths used in this file:)
(Drill 1)
(Tools used in this file: )
(29 = Puur d=4 mm)
N100G00G21G17G90G40G49G80
N110G71G91.1
N120T29M06
N130 (Puur d=4 mm)
N140G00G43Z22.500H29
N150S14000M03
N160(Toolpath:- Drill 1)
N170()
N180G94
N190G00X0.000Y0.000F3600.0
N200G00X10.000Y-100.000Z22.000
#600 = 1 (G1 mode)
#601 = 0 (X no movement)
#602 = 0 (Y no movement)
#603 = 1 (Z movement)
M150 (Safety check)
N210G01Z6.000F1200.0
#600 = 1 (G1 mode)
#601 = 1 (X movement)
#602 = 0 (Y no movement)
#603 = 0 (Z no movement)
M150 (Safety check)
N215G01X6.000F1200.0
N220G00Z22.000
N230G00Y-200.000
#600 = 1 (G1 mode)
#601 = 0 (X no movement)
#602 = 0 (Y no movement)
#603 = 1 (Z movement)
M150 (Safety check)
N240G01Z6.000F1200.0
N250G00Z22.000
N260G00Y-300.000
#600 = 1 (G1 mode)
#601 = 0 (X no movement)
#602 = 0 (Y no movement)
#603 = 1 (Z movement)
M150 (Safety check)
N270G01Z6.000F1200.0
N280G00Z22.000
N290G00Z22.500
N300G00X0.000Y0.000
N310M09
N320M30
%

(End of normalized G-code)
(Processed 35 lines)
(Normalized 3 G-codes)
(Removed 0 redundant coordinates)
(Added 1 explicit G01 commands)

(End of safety-enhanced G-code)
(Added 4 safety checks)